X: 646
T: The Little Harvest Rose
C:O'Carolan
B:O'Neill's 646
Z: 1997 by John Chambers <jc@trillian.mit.edu>
N:"Moderate"
M:C
L:1/8
K:F
FG \
| A2BA G2AG | F2ff f2(c/d/f) | (g/a/b) ag ({fg}fe) ({de}dc)  | c2~d2 {cd}c2FG |
| (A>cBA) (G>BAG) | F2ff f2(c/d/f) | (gbag) (fedc) | c2=B2 c2 ||
fe \
| (ed)(dc) (cAGF) | (FA/c/) ff f2(g/f/d) | (c>BAG) (BAGF) | (DF)FG F2fe |
| (ed)(dc) (cAGF) | Acf2 f2(g/f/e/d/) | c2AG (BAGF) | (DF)FG HF2 |]


